static/icons/volumeMax.svg

<?xml version="1.0" encoding="UTF-8" standalone="no"?>
<svg
   xmlns:dc="http://purl.org/dc/elements/1.1/"
   xmlns:cc="http://creativecommons.org/ns#"
   xmlns:rdf="http://www.w3.org/1999/02/22-rdf-syntax-ns#"
   xmlns:svg="http://www.w3.org/2000/svg"
   xmlns="http://www.w3.org/2000/svg"
   xmlns:sodipodi="http://sodipodi.sourceforge.net/DTD/sodipodi-0.dtd"
   xmlns:inkscape="http://www.inkscape.org/namespaces/inkscape"
   viewBox="0 0 16 16"
   id="svg2"
   version="1.1"
   inkscape:version="0.91 r13725"
   sodipodi:docname="speaker.svg">
  <metadata
     id="metadata18">
    <rdf:RDF>
      <cc:Work
         rdf:about="">
        <dc:format>image/svg+xml</dc:format>
        <dc:type
           rdf:resource="http://purl.org/dc/dcmitype/StillImage" />
        <dc:title />
      </cc:Work>
    </rdf:RDF>
  </metadata>
  <defs
     id="defs16" />
  <sodipodi:namedview
     pagecolor="#ffffff"
     bordercolor="#666666"
     borderopacity="1"
     objecttolerance="10"
     gridtolerance="10"
     guidetolerance="10"
     inkscape:pageopacity="0"
     inkscape:pageshadow="2"
     inkscape:window-width="1615"
     inkscape:window-height="1026"
     id="namedview14"
     showgrid="false"
     inkscape:zoom="14.75"
     inkscape:cx="-3.7288136"
     inkscape:cy="8"
     inkscape:window-x="65"
     inkscape:window-y="24"
     inkscape:window-maximized="1"
     inkscape:current-layer="svg2" />
  <path
     d="M 6,2 2,6 2,10 6,14 6,9 7,8 6,7 Z"
     style="fill:#44433f;fill-opacity:1"
     id="path4" />
  <path
     d="m 1.3 5 c -1.083 0 -1.3 1.163 -1.3 2.4 l 0 1.2 c 0 1.237 0.243 2.4 1.3 2.4 l 1.7 0 0 -6"
     style="fill:#44433f;fill-opacity:1"
     id="path6" />
  <path
     d="m 13.14 1 -1.414 1.414 c 1.082 1.082 2.264 3.033 2.274 5.586 c 0 2.551 -1.193 4.506 -2.274 5.586 l 1.414 1.414 c 1.455 -1.455 2.879 -4 2.859 -7 0.035 -3 -1.405 -5.546 -2.859 -7"
     style="fill:#44433f;opacity:1;fill-opacity:1;stroke:none;fill-rule:evenodd"
     id="path8" />
  <path
     d="m 11 3.116 -1.41 1.41 c 0.783 0.783 1.41 2.043 1.41 3.474 0 1.431 -0.627 2.691 -1.41 3.474 l 1.41 1.41 c 1.276 -1.276 2 -3.03 2 -4.884 0 -1.846 -0.727 -3.611 -2 -4.884"
     style="fill:#44433f;opacity:1;fill-opacity:1;stroke:none;fill-rule:evenodd"
     id="path10" />
  <path
     d="m 8.629 5 -1.42 1.41 c 0.791 0.647 0.791 1.396 0.791 1.59 0 0.193 -0.018 0.941 -0.791 1.59 l 1.42 1.41 c 1.218 -1.047 1.371 -2.402 1.371 -3 0 -0.6 -0.146 -1.937 -1.371 -3"
     style="fill:#44433f;opacity:1;fill-opacity:1;stroke:none;fill-rule:evenodd"
     id="path12" />
</svg>

<svg xmlns="http://www.w3.org/2000/svg" viewBox="0 0 16 16"><path d="M6 2L2 6v4l4 4V9l1-1-1-1z" fill="#44433f"/><path d="M1.3 5C.217 5 0 6.163 0 7.4v1.2C0 9.837.243 11 1.3 11H3V5" fill="#44433f"/><path d="M13.14 1l-1.414 1.414C12.808 3.496 13.99 5.447 14 8c0 2.551-1.193 4.506-2.274 5.586L13.14 15c1.455-1.455 2.879-4 2.859-7 .035-3-1.405-5.546-2.859-7" fill="#44433f" fill-rule="evenodd"/><path d="M11 3.116l-1.41 1.41C10.373 5.309 11 6.569 11 8s-.627 2.691-1.41 3.474l1.41 1.41A6.895 6.895 0 0 0 13 8a6.916 6.916 0 0 0-2-4.884" fill="#44433f" fill-rule="evenodd"/><path d="M8.629 5l-1.42 1.41C8 7.057 8 7.806 8 8c0 .193-.018.941-.791 1.59L8.629 11C9.847 9.953 10 8.598 10 8c0-.6-.146-1.937-1.371-3" fill="#44433f" fill-rule="evenodd"/></svg>
